X:403
T:New Land
C:Otis Tomas
M:3/4
L:1/8
K:G
|: G3 F GA | B d3 e2 | d2 dB A2 | G2 GA BG | 
c2 cB AB | c e3 g2 | e2 ec A2 | A2 AB (3cBA | 
B3 G BG | B d3 ga | b2 ba g2 | e2 ef ga | 
b2 ba g2 | a f3 d2 | Be e2 d2 |1 e2 ed BA :|2 e2 ef ga || 
|: b2 ba bc' | b2 a2 g2 | c2 cB cd | c2 d2 e2 | 
a2 ag ab | a2 g2 f2 | B2 BA Bc | B2 c2 d2 | 
g2 gf ga | g2 f2 e2 | A2 AG AB | A2 G2 E2 | 
d B3 G2 | A F3 D2 | B, E3 D2 |1 E2 ef ga :|2 E2 ed BA || 

